X: 32
T:Farewell to the Gold
T:Hungover Liver - Parody by Marcus Turner
M:6/8
L:1/8
Q:80
C:Paul Metsers
K:C
"C"ed3c2|"G"gf3e2|"Am"e3dc2|"Em"B G3 G2|"F"A2c3c|"G"cd3G2|"C"e6-|"G"e2z2
ee|!
"C"e2d3c|"G"gf3e2|"Am"e3dc2|"Em"BG3G2|"F"Ac3c2|"G"c2dB3|"C"c6-|c2z2|!
"Chorus:"c2| "G"   d3ed2|"G7"f4f2|"C"e2dc3|"G"d4d2|d4ef|"Am"gf3e2|"F"e2d
3c|"G"d4cd|!
"C"e3dc2|"G"gf3e2|"Am"e2d2c2|"Em"BG3G2|"F"A3Bc2|"G"c2d2B2|"C"c6-|c4z2||
